public/img/removal/kanary-poweredby.svg

<svg fill="none" height="16" viewBox="0 0 90 16" width="90" xmlns="http://www.w3.org/2000/svg" xmlns:xlink="http://www.w3.org/1999/xlink"><clipPath id="a"><path d="m34 0h55.4667v16h-55.4667z"/></clipPath><path d="m.479403 5h.658377v-1.53409h.89489c1.01207 0 1.51278-.61151 1.51278-1.4169 0-.80327-.49644-1.412646-1.51065-1.412646h-1.555397zm.658377-2.09233v-1.70668h.82671c.65199 0 .91832.3537.91832.84802 0 .49431-.26633.85866-.9098.85866zm4.46591 2.15838c.92259 0 1.52557-.67543 1.52557-1.6875 0-1.01846-.60298-1.69389-1.52557-1.69389-.92258 0-1.52557.67543-1.52557 1.69389 0 1.01207.60299 1.6875 1.52557 1.6875zm.00213-.5348c-.60298 0-.88423-.52628-.88423-1.15483 0-.62642.28125-1.15909.88423-1.15909.59873 0 .87998.53267.87998 1.15909 0 .62855-.28125 1.15483-.87998 1.15483zm2.84446.46875h.64773l.66477-2.36293h.04901l.66481 2.36293h.6498l.961-3.27273h-.6584l-.6371 2.39276h-.032l-.6392-2.39276h-.65834l-.64347 2.40341h-.03196l-.64133-2.40341h-.65838zm5.55252.06605c.7138 0 1.2188-.35156 1.3637-.88423l-.603-.10867c-.1151.30895-.3921.46662-.7543.46662-.5454 0-.9119-.35369-.9289-.98437h2.3267v-.22585c0-1.18253-.7074-1.64489-1.4489-1.64489-.9119 0-1.5128.6946-1.5128 1.70028 0 1.01634.5923 1.68111 1.5575 1.68111zm-.9204-1.98793c.0256-.46448.3622-.86718.88-.86718.4943 0 .8181.36647.8203.86718zm3.0314 1.92188h.6371v-1.99858c0-.42827.3302-.73722.7819-.73722.1322 0 .2813.02344.3324.03836v-.60938c-.0639-.00852-.1896-.01491-.2706-.01491-.3835 0-.7116.21733-.8309.56889h-.0341v-.51989h-.6158zm3.5961.06605c.7138 0 1.2187-.35156 1.3636-.88423l-.603-.10867c-.115.30895-.392.46662-.7542.46662-.5455 0-.912-.35369-.929-.98437h2.3267v-.22585c0-1.18253-.7074-1.64489-1.4489-1.64489-.9119 0-1.5128.6946-1.5128 1.70028 0 1.01634.5924 1.68111 1.5576 1.68111zm-.9205-1.98793c.0256-.46448.3622-.86718.88-.86718.4943 0 .8182.36647.8203.86718zm4.2566 1.9858c.5966 0 .831-.36435.946-.57315h.0533v.50923h.6221v-4.363636h-.637v1.621446h-.0384c-.115-.20241-.3324-.57315-.9418-.57315-.7904 0-1.3721.62429-1.3721 1.68537 0 1.05895.5731 1.69389 1.3679 1.69389zm.1406-.54332c-.5689 0-.865-.50071-.865-1.15696 0-.64986.2897-1.13779.865-1.13779.5561 0 .8544.45384.8544 1.13779 0 .68821-.3047 1.15696-.8544 1.15696zm4.0291.4794h.6222v-.50923h.0533c.115.2088.3494.57315.946.57315.7926 0 1.3679-.63494 1.3679-1.69389 0-1.06108-.5838-1.68537-1.3743-1.68537-.6073 0-.8267.37074-.9396.57315h-.0384v-1.621446h-.6371zm.6243-1.63636c0-.68395.2983-1.13779.8544-1.13779.5774 0 .8672.48793.8672 1.13779 0 .65625-.2983 1.15696-.8672 1.15696-.5476 0-.8544-.46875-.8544-1.15696zm3.366 2.86363c.5262 0 .8586-.27486 1.0483-.79048l1.3487-3.70952h-.684l-.8288 2.53978h-.0341l-.8288-2.53978h-.6818l1.1974 3.31534-.0788.21733c-.162.43466-.39.47088-.7394.375l-.1534.52202c.0767.03409.2429.07031.4347.07031z" fill="#9059ff"/><g clip-path="url(#a)"><path clip-rule="evenodd" d="m45.4173.840644c2.8717 2.933146 2.8649 7.670576-.0204 10.595156-2.1976 2.2276-5.4329 2.7625-8.1289 1.6047l-2.4537 2.4871c-1.0857-1.1006-1.0857-2.8849 0-3.9854.036-.0365.0726-.0717.11-.1057l-.0006-.0007 6.471-6.55913c-.2543-.26296-.4487-.56326-.583-.88326l-1.2569-.9194 1.0921-.79888c.1093-.52582.3653-1.02656.7681-1.434854 1.1053-1.120368 2.8974-1.120368 4.0027 0z" fill="#ffd600" fill-rule="evenodd"/><g fill="#111"><path d="m53.9589 13.0045-1.7907-2.5761v2.5761h-1.8337v-8.04332h1.8337v4.41293l1.7907-2.43472h2.1554l-2.4127 3.03252 2.4663 3.03259z"/><path d="m59.1109 6.86328c.4575 0 .8507.10508 1.1796.31524.3288.21012.5719.49635.7292.85869v-1.09782h1.8229v6.06511h-1.8229v-1.0978c-.1573.3623-.4004.6485-.7292.8586-.3289.2102-.7221.3152-1.1796.3152-.4932 0-.9365-.1231-1.3297-.3695-.386-.2536-.6934-.6159-.9222-1.0869-.2216-.471-.3324-1.0217-.3324-1.65219 0-.63767.1108-1.18837.3324-1.65211.2288-.47101.5362-.82971.9222-1.07606.3932-.25363.8365-.38046 1.3297-.38046zm.5898 1.6304c-.3932 0-.7113.13047-.9544.39131-.2359.26089-.3538.62318-.3538 1.08692 0 .46379.1179.82609.3538 1.08699.2431.2608.5612.3912.9544.3912.3861 0 .7006-.134.9437-.4021.2502-.2681.3753-.6268.3753-1.07609 0-.45648-.1251-.81518-.3753-1.07607-.2431-.2681-.5576-.40216-.9437-.40216z"/><path d="m67.9013 6.87427c.6863 0 1.2296.23187 1.6299.69561.4075.46378.6112 1.10145.6112 1.91304v3.52168h-1.8337v-3.3043c0-.40579-.1072-.72104-.3216-.94564-.2073-.23187-.4862-.34781-.8365-.34781-.3717 0-.6684.11953-.89.35866-.2145.23914-.3217.57972-.3217 1.02171v3.21738h-1.8337v-6.06512h1.8337v1.10867c.1716-.36234.4254-.64856.7614-.85868.3431-.21016.7435-.3152 1.201-.3152z"/><path d="m73.6251 6.86328c.4575 0 .8507.10508 1.1795.31524.3289.21012.5719.49635.7292.85869v-1.09782h1.8232v6.06511h-1.8232v-1.0978c-.1573.3623-.4003.6485-.7292.8586-.3288.2102-.722.3152-1.1795.3152-.4933 0-.9365-.1231-1.3297-.3695-.3861-.2536-.6934-.6159-.9222-1.0869-.2216-.471-.3324-1.0217-.3324-1.65219 0-.63767.1108-1.18837.3324-1.65211.2288-.47101.5361-.82971.9222-1.07606.3932-.25363.8364-.38046 1.3297-.38046zm.5897 1.6304c-.3931 0-.7113.13047-.9543.39131-.2359.26089-.3539.62318-.3539 1.08692 0 .46379.118.82609.3539 1.08699.243.2608.5612.3912.9543.3912.3861 0 .7006-.134.9437-.4021.2502-.2681.3753-.6268.3753-1.07609 0-.45648-.1251-.81518-.3753-1.07607-.2431-.2681-.5576-.40216-.9437-.40216z"/><path d="m80.453 8.08075c.2287-.36955.5218-.66304.8793-.88043.3648-.21738.7578-.32605 1.1798-.32605v1.98906h-.5257c-.486 0-.8649.10508-1.1366.31524-.2646.21012-.3968.56519-.3968 1.06513v2.7609h-1.8339v-6.06512h1.8339z"/><path d="m84.6627 6.93945 1.4366 3.71735 1.3406-3.71735h2.0266l-3.7316 8.95635h-2.016l1.4046-3.1195-2.5092-5.83685z"/></g></g></svg>

<svg width="90" height="16" viewBox="0 0 90 16" fill="none" xmlns="http://www.w3.org/2000/svg">
<title>Powered By Kanary Logo</title>
<path d="M0.479403 5H1.13778V3.46591H2.03267C3.04474 3.46591 3.54545 2.8544 3.54545 2.04901C3.54545 1.24574 3.04901 0.636364 2.0348 0.636364H0.479403V5ZM1.13778 2.90767V1.20099H1.96449C2.61648 1.20099 2.88281 1.55469 2.88281 2.04901C2.88281 2.54332 2.61648 2.90767 1.97301 2.90767H1.13778ZM5.60369 5.06605C6.52628 5.06605 7.12926 4.39062 7.12926 3.37855C7.12926 2.36009 6.52628 1.68466 5.60369 1.68466C4.68111 1.68466 4.07812 2.36009 4.07812 3.37855C4.07812 4.39062 4.68111 5.06605 5.60369 5.06605ZM5.60582 4.53125C5.00284 4.53125 4.72159 4.00497 4.72159 3.37642C4.72159 2.75 5.00284 2.21733 5.60582 2.21733C6.20455 2.21733 6.4858 2.75 6.4858 3.37642C6.4858 4.00497 6.20455 4.53125 5.60582 4.53125ZM8.45028 5H9.09801L9.76278 2.63707H9.81179L10.4766 5H11.1264L12.0874 1.72727H11.429L10.7919 4.12003H10.7599L10.1207 1.72727H9.46236L8.81889 4.13068H8.78693L8.1456 1.72727H7.48722L8.45028 5ZM14.0028 5.06605C14.7166 5.06605 15.2216 4.71449 15.3665 4.18182L14.7635 4.07315C14.6484 4.3821 14.3714 4.53977 14.0092 4.53977C13.4638 4.53977 13.0973 4.18608 13.0803 3.5554H15.407V3.32955C15.407 2.14702 14.6996 1.68466 13.9581 1.68466C13.0462 1.68466 12.4453 2.37926 12.4453 3.38494C12.4453 4.40128 13.0376 5.06605 14.0028 5.06605ZM13.0824 3.07812C13.108 2.61364 13.4446 2.21094 13.9624 2.21094C14.4567 2.21094 14.7805 2.57741 14.7827 3.07812H13.0824ZM16.1138 5H16.7509V3.00142C16.7509 2.57315 17.0811 2.2642 17.5328 2.2642C17.665 2.2642 17.8141 2.28764 17.8652 2.30256V1.69318C17.8013 1.68466 17.6756 1.67827 17.5946 1.67827C17.2111 1.67827 16.883 1.8956 16.7637 2.24716H16.7296V1.72727H16.1138V5ZM19.7099 5.06605C20.4237 5.06605 20.9286 4.71449 21.0735 4.18182L20.4705 4.07315C20.3555 4.3821 20.0785 4.53977 19.7163 4.53977C19.1708 4.53977 18.8043 4.18608 18.7873 3.5554H21.114V3.32955C21.114 2.14702 20.4066 1.68466 19.6651 1.68466C18.7532 1.68466 18.1523 2.37926 18.1523 3.38494C18.1523 4.40128 18.7447 5.06605 19.7099 5.06605ZM18.7894 3.07812C18.815 2.61364 19.1516 2.21094 19.6694 2.21094C20.1637 2.21094 20.4876 2.57741 20.4897 3.07812H18.7894ZM23.046 5.06392C23.6426 5.06392 23.877 4.69957 23.992 4.49077H24.0453V5H24.6674V0.636364H24.0304V2.25781H23.992C23.877 2.0554 23.6596 1.68466 23.0502 1.68466C22.2598 1.68466 21.6781 2.30895 21.6781 3.37003C21.6781 4.42898 22.2512 5.06392 23.046 5.06392ZM23.1866 4.5206C22.6177 4.5206 22.3216 4.01989 22.3216 3.36364C22.3216 2.71378 22.6113 2.22585 23.1866 2.22585C23.7427 2.22585 24.041 2.67969 24.041 3.36364C24.041 4.05185 23.7363 4.5206 23.1866 4.5206ZM27.2157 5H27.8379V4.49077H27.8912C28.0062 4.69957 28.2406 5.06392 28.8372 5.06392C29.6298 5.06392 30.2051 4.42898 30.2051 3.37003C30.2051 2.30895 29.6213 1.68466 28.8308 1.68466C28.2235 1.68466 28.0041 2.0554 27.8912 2.25781H27.8528V0.636364H27.2157V5ZM27.84 3.36364C27.84 2.67969 28.1383 2.22585 28.6944 2.22585C29.2718 2.22585 29.5616 2.71378 29.5616 3.36364C29.5616 4.01989 29.2633 4.5206 28.6944 4.5206C28.1468 4.5206 27.84 4.05185 27.84 3.36364ZM31.206 6.22727C31.7322 6.22727 32.0646 5.95241 32.2543 5.43679L33.603 1.72727H32.919L32.0902 4.26705H32.0561L31.2273 1.72727H30.5455L31.7429 5.04261L31.6641 5.25994C31.5021 5.6946 31.2741 5.73082 30.9247 5.63494L30.7713 6.15696C30.848 6.19105 31.0142 6.22727 31.206 6.22727Z" fill="#9059FF"/>
<g clip-path="url(#clip0)">
<path fill-rule="evenodd" clip-rule="evenodd" d="M45.4173 0.840644C48.289 3.77379 48.2822 8.51122 45.3969 11.4358C43.1993 13.6634 39.964 14.1983 37.268 13.0405L34.8143 15.5276C33.7286 14.427 33.7286 12.6427 34.8143 11.5422C34.8503 11.5057 34.8869 11.4705 34.9243 11.4365L34.9237 11.4358L41.3947 4.87667C41.1404 4.61371 40.946 4.31341 40.8117 3.99341L39.5548 3.07401L40.6469 2.27513C40.7562 1.74931 41.0122 1.24857 41.415 0.840276C42.5203 -0.280092 44.3124 -0.280092 45.4177 0.840276L45.4173 0.840644Z" fill="#FFD600"/>
<path d="M53.9589 13.0045L52.1682 10.4284V13.0045H50.3345V4.96118H52.1682V9.37411L53.9589 6.93939H56.1143L53.7016 9.97191L56.1679 13.0045H53.9589Z" fill="#111111"/>
<path d="M59.1109 6.86328C59.5684 6.86328 59.9616 6.96836 60.2905 7.17852C60.6193 7.38864 60.8624 7.67487 61.0197 8.03721V6.93939H62.8426V13.0045H61.0197V11.9067C60.8624 12.269 60.6193 12.5552 60.2905 12.7653C59.9616 12.9755 59.5684 13.0805 59.1109 13.0805C58.6177 13.0805 58.1744 12.9574 57.7812 12.711C57.3952 12.4574 57.0878 12.0951 56.859 11.6241C56.6374 11.1531 56.5266 10.6024 56.5266 9.97191C56.5266 9.33424 56.6374 8.78354 56.859 8.3198C57.0878 7.84879 57.3952 7.49009 57.7812 7.24374C58.1744 6.99011 58.6177 6.86328 59.1109 6.86328ZM59.7007 8.49368C59.3075 8.49368 58.9894 8.62415 58.7463 8.88499C58.5104 9.14588 58.3925 9.50817 58.3925 9.97191C58.3925 10.4357 58.5104 10.798 58.7463 11.0589C58.9894 11.3197 59.3075 11.4501 59.7007 11.4501C60.0868 11.4501 60.4013 11.3161 60.6444 11.048C60.8946 10.7799 61.0197 10.4212 61.0197 9.97191C61.0197 9.51543 60.8946 9.15673 60.6444 8.89584C60.4013 8.62774 60.0868 8.49368 59.7007 8.49368Z" fill="#111111"/>
<path d="M67.9013 6.87427C68.5876 6.87427 69.1309 7.10614 69.5312 7.56988C69.9387 8.03366 70.1424 8.67133 70.1424 9.48292V13.0046H68.3087V9.7003C68.3087 9.29451 68.2015 8.97926 67.9871 8.75466C67.7798 8.52279 67.5009 8.40685 67.1506 8.40685C66.7789 8.40685 66.4822 8.52638 66.2606 8.76551C66.0461 9.00465 65.9389 9.34523 65.9389 9.78722V13.0046H64.1052V6.93948H65.9389V8.04815C66.1105 7.68581 66.3643 7.39959 66.7003 7.18947C67.0434 6.97931 67.4438 6.87427 67.9013 6.87427Z" fill="#111111"/>
<path d="M73.6251 6.86328C74.0826 6.86328 74.4758 6.96836 74.8046 7.17852C75.1335 7.38864 75.3765 7.67487 75.5338 8.03721V6.93939H77.357V13.0045H75.5338V11.9067C75.3765 12.269 75.1335 12.5552 74.8046 12.7653C74.4758 12.9755 74.0826 13.0805 73.6251 13.0805C73.1318 13.0805 72.6886 12.9574 72.2954 12.711C71.9093 12.4574 71.602 12.0951 71.3732 11.6241C71.1516 11.1531 71.0408 10.6024 71.0408 9.97191C71.0408 9.33424 71.1516 8.78354 71.3732 8.3198C71.602 7.84879 71.9093 7.49009 72.2954 7.24374C72.6886 6.99011 73.1318 6.86328 73.6251 6.86328ZM74.2148 8.49368C73.8217 8.49368 73.5035 8.62415 73.2605 8.88499C73.0246 9.14588 72.9066 9.50817 72.9066 9.97191C72.9066 10.4357 73.0246 10.798 73.2605 11.0589C73.5035 11.3197 73.8217 11.4501 74.2148 11.4501C74.6009 11.4501 74.9154 11.3161 75.1585 11.048C75.4087 10.7799 75.5338 10.4212 75.5338 9.97191C75.5338 9.51543 75.4087 9.15673 75.1585 8.89584C74.9154 8.62774 74.6009 8.49368 74.2148 8.49368Z" fill="#111111"/>
<path d="M80.453 8.08075C80.6817 7.7112 80.9748 7.41771 81.3323 7.20032C81.6971 6.98294 82.0901 6.87427 82.5121 6.87427V8.86333H81.9864C81.5004 8.86333 81.1215 8.96841 80.8498 9.17857C80.5852 9.38869 80.453 9.74376 80.453 10.2437V13.0046H78.6191V6.93948H80.453V8.08075Z" fill="#111111"/>
<path d="M84.6627 6.93945L86.0993 10.6568L87.4399 6.93945H89.4665L85.7349 15.8958H83.7189L85.1235 12.7763L82.6143 6.93945H84.6627Z" fill="#111111"/>
</g>
<defs>
<clipPath id="clip0">
<rect width="55.4667" height="16" fill="white" transform="translate(34)"/>
</clipPath>
</defs>
</svg>
